assets/icons/action/new_custom87.svg

<?xml version="1.0"?><svg xmlns="http://www.w3.org/2000/svg" width="52" height="52" viewBox="0 0 52 52"><g fill="#fff"><path d="m45.6 2h-39.2c-1.4 0-2.4 1-2.4 2.4v38.4c0 1.4 1 2.4 2.4 2.4h0.8v2.4c0 1.4 1 2.4 2.4 2.4h1.6c1.3 0 2.4-1 2.4-2.4v-2.4h25.1v2.4c0 1.4 1 2.4 2.4 2.4h1.6c1.3 0 2.4-1 2.4-2.4v-2.4h0.8c1.3 0 2.4-1 2.4-2.4v-38.4c-0.3-1.4-1.3-2.4-2.7-2.4z m-34.5 38.4c-1.3 0-2.4-1-2.4-2.4v-28.8c0-1.4 1-2.4 2.4-2.4h29.9c1.3 0 2.4 1 2.4 2.4v28.8c0 1.4-1 2.4-2.4 2.4h-29.9z m25.9-28.8h-22c-0.9 0-1.6 0.7-1.6 1.6v20.8c0 0.9 0.7 1.6 1.6 1.6h22c0.9 0 1.6-0.7 1.6-1.6v-20.8c0-0.9-0.7-1.6-1.6-1.6z m-3.7 14.4h-6.5c-0.9 1.6-2.7 3.2-4.9 3.2-3 0-5.3-2.6-5.3-5.6s2.4-5.6 5.3-5.6c2.2 0 4.1 1.6 4.9 3.2h6.4c1.2 0 2.1 1.2 2.1 2.4 0.1 1.2-0.8 2.4-2 2.4z"></path></g></svg>

<svg xmlns="http://www.w3.org/2000/svg" x="0px" y="0px"
	 width="52px" height="52px" viewBox="0 0 52 52" enable-background="new 0 0 52 52" xml:space="preserve">
<g>
	<path fill="#FFFFFF" d="M45.6,2H6.4C5,2,4,3,4,4.4v38.4c0,1.4,1,2.4,2.4,2.4h0.8v2.4c0,1.4,1,2.4,2.4,2.4h1.6c1.3,0,2.4-1,2.4-2.4
		v-2.4h25.1v2.4c0,1.4,1,2.4,2.4,2.4h1.6c1.3,0,2.4-1,2.4-2.4v-2.4h0.8c1.3,0,2.4-1,2.4-2.4V4.4C48,3,47,2,45.6,2z M11.1,40.4
		c-1.3,0-2.4-1-2.4-2.4V9.2c0-1.4,1-2.4,2.4-2.4h29.9c1.3,0,2.4,1,2.4,2.4V38c0,1.4-1,2.4-2.4,2.4H11.1z"/>
	<path fill="#FFFFFF" d="M37,11.6H15c-0.9,0-1.6,0.7-1.6,1.6V34c0,0.9,0.7,1.6,1.6,1.6h22c0.9,0,1.6-0.7,1.6-1.6V13.2
		C38.6,12.3,37.9,11.6,37,11.6z M33.3,26h-6.5c-0.9,1.6-2.7,3.2-4.9,3.2c-3,0-5.3-2.6-5.3-5.6s2.4-5.6,5.3-5.6
		c2.2,0,4.1,1.6,4.9,3.2h6.4c1.2,0,2.1,1.2,2.1,2.4C35.4,24.8,34.5,26,33.3,26z"/>
</g>
</svg>
